Newaita-dark/apps/16/com.github.timecraft.notifier.svg

<svg height="16" viewBox="0 0 16 16" width="16" xmlns="http://www.w3.org/2000/svg" xmlns:xlink="http://www.w3.org/1999/xlink"><linearGradient id="a" gradientUnits="userSpaceOnUse" x1="7.93826" x2="7.93826" y1="14.0169685" y2="14.67849050002"><stop offset="0" stop-opacity=".27451"/><stop offset="1" stop-opacity="0"/></linearGradient><linearGradient id="b"><stop offset="0" stop-opacity=".313726"/><stop offset=".222222" stop-opacity=".27451"/><stop offset="1" stop-opacity="0"/></linearGradient><radialGradient id="c" cx="450.908936" cy="189.579361" gradientTransform="matrix(.00000009 -.0390662 -.0703192 -.00000005 26.065324 31.797666)" gradientUnits="userSpaceOnUse" r="21.166656" xlink:href="#b"/><radialGradient id="d" cx="450.908936" cy="189.579361" gradientTransform="matrix(-.00000009 .0390662 .0703192 .00000005 -10.188807 -3.763739)" gradientUnits="userSpaceOnUse" r="21.166656" xlink:href="#b"/><radialGradient id="e" cx="450.908936" cy="189.579361" gradientTransform="matrix(-.00000009 -.0390662 .0703192 -.00000005 -10.188807 31.797666)" gradientUnits="userSpaceOnUse" r="21.166656" xlink:href="#b"/><radialGradient id="f" cx="450.908936" cy="189.579361" gradientTransform="matrix(.00000009 .0390662 -.0703192 .00000005 26.065323 -3.76374)" gradientUnits="userSpaceOnUse" r="21.166656" xlink:href="#b"/><linearGradient id="g" gradientUnits="userSpaceOnUse" x1="5.29217449998" x2="5.29217449998" y1="14.0169675" y2="1.44805300003"><stop offset="0" stop-color="#f44336"/><stop offset="1" stop-color="#ef5350"/></linearGradient><linearGradient id="h" gradientUnits="userSpaceOnUse" x1="7.9553632" x2="7.9553632" y1="13.35546020048" y2="2.7711142201"><stop offset="0" stop-color="#bdbdbd"/><stop offset="1" stop-color="#e0e0e0"/></linearGradient><path d="m2.976562 13.96875h9.921876v.734375h-9.921876zm0 0" fill="url(#a)"/><path d="m12.898438 14.015625h1.324218v-.660156h-1.324218zm0 0" fill="url(#c)"/><path d="m2.976562 14.015625h-1.324218v.664063h1.324218zm0 0" fill="url(#d)"/><path d="m2.976562 14.015625h-1.324218v-.660156h1.324218zm0 0" fill="url(#e)"/><path d="m12.898438 14.015625h1.324218v.664063h-1.324218zm0 0" fill="url(#f)"/><path d="m2.316406 1.449219h11.246094c.363281 0 .660156.296875.660156.660156v11.246094c0 .367187-.296875.660156-.660156.660156h-11.246094c-.367187 0-.664062-.292969-.664062-.660156v-11.246094c0-.363281.296875-.660156.664062-.660156zm0 0" fill="url(#g)"/><path d="m2.316406 1.449219c-.367187 0-.664062.292969-.664062.660156v.082031c0-.367187.296875-.660156.664062-.660156h11.246094c.363281 0 .660156.292969.660156.660156v-.082031c0-.367187-.296875-.660156-.660156-.660156zm0 0" fill="#e6e6e6" fill-opacity=".392157"/><path d="m2.316406 14.015625c-.367187 0-.664062-.292969-.664062-.660156v-.082031c0 .367187.296875.660156.664062.660156h11.246094c.363281 0 .660156-.292969.660156-.660156v.082031c0 .367187-.296875.660156-.660156.660156zm0 0" fill-opacity=".196078"/><path d="m74.117922-168.629428h359.840637c11.62389 0 21.122983 9.499093 21.122983 21.122983v359.840637c0 11.748878-9.499093 21.122982-21.122983 21.122982h-359.840637c-11.748878 0-21.247971-9.374104-21.247971-21.122982v-359.840637c0-11.62389 9.499093-21.122983 21.247971-21.122983zm0 0" fill="none" stroke="#212121" stroke-linecap="round" stroke-width="3" transform="matrix(.031253 0 0 .031253 0 6.719392)"/><path d="m7.292969 4.09375c-.191407 0-.34375.164062-.328125.355469l.332031 4.300781c.011719.171875.15625.304688.328125.304688h.660156c.171875 0 .316406-.132813.332032-.304688l.328124-4.300781c.015626-.191407-.136718-.355469-.328124-.355469zm.664062 5.625c-.367187 0-.664062.292969-.664062.660156 0 .367188.296875.660156.664062.660156.363281 0 .660157-.292968.660157-.660156 0-.367187-.296876-.660156-.660157-.660156zm0 0" fill="url(#h)"/><path d="m7.292969 4.09375c-.191407 0-.34375.164062-.328125.355469l.011718.136719c.035157-.140626.164063-.242188.316407-.242188h1.324219c.152343 0 .28125.101562.320312.242188l.007812-.136719c.015626-.191407-.136718-.355469-.328124-.355469zm.664062 5.625c-.367187 0-.664062.292969-.664062.660156 0 .042969.003906.082032.011719.125.058593-.308594.328124-.539062.652343-.539062s.589844.230468.648438.539062c.007812-.042968.011719-.082031.011719-.125 0-.367187-.296876-.660156-.660157-.660156zm0 0" fill="#fff" fill-opacity=".86129"/><path d="m6.980469 4.652344c-.011719.039062-.019531.085937-.015625.128906l.332031 4.300781c.011719.171875.15625.304688.328125.304688h.660156c.171875 0 .316406-.132813.332032-.304688l.328124-4.300781c.003907-.042969 0-.089844-.015624-.128906l-.3125 4.097656c-.015626.171875-.160157.304688-.332032.304688h-.660156c-.171875 0-.316406-.132813-.328125-.304688zm.335937 5.890625c-.015625.054687-.023437.109375-.023437.167969 0 .367187.296875.660156.664062.660156.363281 0 .660157-.292969.660157-.660156 0-.058594-.007813-.113282-.019532-.167969-.074218.285156-.332031.496093-.640625.496093-.3125 0-.570312-.210937-.640625-.496093zm0 0" fill-opacity=".235294"/><path d="m233.352716-84.012509c-6.124415 0-10.99895 5.249499-10.498997 11.373914l10.623985 137.611859c.374964 5.499475 4.999523 9.749069 10.498997 9.749069h21.122983c5.499475 0 10.124033-4.249594 10.623986-9.749069l10.498997-137.611859c.499952-6.124415-4.374582-11.373914-10.498997-11.373914zm21.247971 179.982813c-11.748878 0-21.247971 9.374105-21.247971 21.122983s9.499093 21.122983 21.247971 21.122983c11.62389 0 21.122983-9.374105 21.122983-21.122983s-9.499093-21.122983-21.122983-21.122983zm0 0" fill="none" stroke="#212121" stroke-linecap="round" stroke-linejoin="round" stroke-width="3" transform="matrix(.031253 0 0 .031253 0 6.719392)"/></svg>

<?xml version="1.0" encoding="UTF-8"?>
<svg xmlns="http://www.w3.org/2000/svg" xmlns:xlink="http://www.w3.org/1999/xlink" width="16px" height="16px" viewBox="0 0 16 16" version="1.1">
<defs>
<linearGradient id="linear0" gradientUnits="userSpaceOnUse" x1="254" y1="233.5" x2="254" y2="254.666672" gradientTransform="matrix(0.031253,0,0,0.031253,-0.00000190753,6.719393)">
<stop offset="0" style="stop-color:rgb(0%,0%,0%);stop-opacity:0.27451;"/>
<stop offset="1" style="stop-color:rgb(0%,0%,0%);stop-opacity:0;"/>
</linearGradient>
<radialGradient id="radial0" gradientUnits="userSpaceOnUse" cx="450.908936" cy="189.579361" fx="450.908936" fy="189.579361" r="21.166656" gradientTransform="matrix(0.0000000870852,-0.0390662,-0.0703192,-0.0000000507693,26.065324,31.797666)">
<stop offset="0" style="stop-color:rgb(0%,0%,0%);stop-opacity:0.313726;"/>
<stop offset="0.222222" style="stop-color:rgb(0%,0%,0%);stop-opacity:0.27451;"/>
<stop offset="1" style="stop-color:rgb(0%,0%,0%);stop-opacity:0;"/>
</radialGradient>
<radialGradient id="radial1" gradientUnits="userSpaceOnUse" cx="450.908936" cy="189.579361" fx="450.908936" fy="189.579361" r="21.166656" gradientTransform="matrix(-0.0000000870852,0.0390662,0.0703192,0.0000000507693,-10.188807,-3.763739)">
<stop offset="0" style="stop-color:rgb(0%,0%,0%);stop-opacity:0.313726;"/>
<stop offset="0.222222" style="stop-color:rgb(0%,0%,0%);stop-opacity:0.27451;"/>
<stop offset="1" style="stop-color:rgb(0%,0%,0%);stop-opacity:0;"/>
</radialGradient>
<radialGradient id="radial2" gradientUnits="userSpaceOnUse" cx="450.908936" cy="189.579361" fx="450.908936" fy="189.579361" r="21.166656" gradientTransform="matrix(-0.0000000870852,-0.0390662,0.0703192,-0.0000000507693,-10.188807,31.797666)">
<stop offset="0" style="stop-color:rgb(0%,0%,0%);stop-opacity:0.313726;"/>
<stop offset="0.222222" style="stop-color:rgb(0%,0%,0%);stop-opacity:0.27451;"/>
<stop offset="1" style="stop-color:rgb(0%,0%,0%);stop-opacity:0;"/>
</radialGradient>
<radialGradient id="radial3" gradientUnits="userSpaceOnUse" cx="450.908936" cy="189.579361" fx="450.908936" fy="189.579361" r="21.166656" gradientTransform="matrix(0.0000000870852,0.0390662,-0.0703192,0.0000000507693,26.065323,-3.76374)">
<stop offset="0" style="stop-color:rgb(0%,0%,0%);stop-opacity:0.313726;"/>
<stop offset="0.222222" style="stop-color:rgb(0%,0%,0%);stop-opacity:0.27451;"/>
<stop offset="1" style="stop-color:rgb(0%,0%,0%);stop-opacity:0;"/>
</radialGradient>
<linearGradient id="linear1" gradientUnits="userSpaceOnUse" x1="169.333328" y1="233.5" x2="169.333328" y2="-168.666656" gradientTransform="matrix(0.031253,0,0,0.031253,0,6.719392)">
<stop offset="0" style="stop-color:rgb(95.686275%,26.274511%,21.176471%);stop-opacity:1;"/>
<stop offset="1" style="stop-color:rgb(93.725491%,32.549021%,31.37255%);stop-opacity:1;"/>
</linearGradient>
<linearGradient id="linear2" gradientUnits="userSpaceOnUse" x1="960" y1="1455.118164" x2="960" y2="175.118118" gradientTransform="matrix(0.00826902,0,0,0.00826902,0.0171038,1.323059)">
<stop offset="0" style="stop-color:rgb(74.117649%,74.117649%,74.117649%);stop-opacity:1;"/>
<stop offset="1" style="stop-color:rgb(87.843138%,87.843138%,87.843138%);stop-opacity:1;"/>
</linearGradient>
</defs>
<g id="surface1">
<path style=" stroke:none;fill-rule:nonzero;fill:url(#linear0);" d="M 2.976562 13.96875 L 12.898438 13.96875 L 12.898438 14.703125 L 2.976562 14.703125 Z M 2.976562 13.96875 "/>
<path style=" stroke:none;fill-rule:nonzero;fill:url(#radial0);" d="M 12.898438 14.015625 L 14.222656 14.015625 L 14.222656 13.355469 L 12.898438 13.355469 Z M 12.898438 14.015625 "/>
<path style=" stroke:none;fill-rule:nonzero;fill:url(#radial1);" d="M 2.976562 14.015625 L 1.652344 14.015625 L 1.652344 14.679688 L 2.976562 14.679688 Z M 2.976562 14.015625 "/>
<path style=" stroke:none;fill-rule:nonzero;fill:url(#radial2);" d="M 2.976562 14.015625 L 1.652344 14.015625 L 1.652344 13.355469 L 2.976562 13.355469 Z M 2.976562 14.015625 "/>
<path style=" stroke:none;fill-rule:nonzero;fill:url(#radial3);" d="M 12.898438 14.015625 L 14.222656 14.015625 L 14.222656 14.679688 L 12.898438 14.679688 Z M 12.898438 14.015625 "/>
<path style=" stroke:none;fill-rule:nonzero;fill:url(#linear1);" d="M 2.316406 1.449219 L 13.5625 1.449219 C 13.925781 1.449219 14.222656 1.746094 14.222656 2.109375 L 14.222656 13.355469 C 14.222656 13.722656 13.925781 14.015625 13.5625 14.015625 L 2.316406 14.015625 C 1.949219 14.015625 1.652344 13.722656 1.652344 13.355469 L 1.652344 2.109375 C 1.652344 1.746094 1.949219 1.449219 2.316406 1.449219 Z M 2.316406 1.449219 "/>
<path style=" stroke:none;fill-rule:nonzero;fill:rgb(90.196079%,90.196079%,90.196079%);fill-opacity:0.392157;" d="M 2.316406 1.449219 C 1.949219 1.449219 1.652344 1.742188 1.652344 2.109375 L 1.652344 2.191406 C 1.652344 1.824219 1.949219 1.53125 2.316406 1.53125 L 13.5625 1.53125 C 13.925781 1.53125 14.222656 1.824219 14.222656 2.191406 L 14.222656 2.109375 C 14.222656 1.742188 13.925781 1.449219 13.5625 1.449219 Z M 2.316406 1.449219 "/>
<path style=" stroke:none;fill-rule:nonzero;fill:rgb(0%,0%,0%);fill-opacity:0.196078;" d="M 2.316406 14.015625 C 1.949219 14.015625 1.652344 13.722656 1.652344 13.355469 L 1.652344 13.273438 C 1.652344 13.640625 1.949219 13.933594 2.316406 13.933594 L 13.5625 13.933594 C 13.925781 13.933594 14.222656 13.640625 14.222656 13.273438 L 14.222656 13.355469 C 14.222656 13.722656 13.925781 14.015625 13.5625 14.015625 Z M 2.316406 14.015625 "/>
<path style="fill:none;stroke-width:3;stroke-linecap:round;stroke-linejoin:miter;stroke:rgb(12.941177%,12.941177%,12.941177%);stroke-opacity:1;stroke-miterlimit:4;" d="M 74.117922 -168.629428 L 433.958559 -168.629428 C 445.582449 -168.629428 455.081542 -159.130335 455.081542 -147.506445 L 455.081542 212.334192 C 455.081542 224.08307 445.582449 233.457174 433.958559 233.457174 L 74.117922 233.457174 C 62.369044 233.457174 52.869951 224.08307 52.869951 212.334192 L 52.869951 -147.506445 C 52.869951 -159.130335 62.369044 -168.629428 74.117922 -168.629428 Z M 74.117922 -168.629428 " transform="matrix(0.031253,0,0,0.031253,0,6.719392)"/>
<path style=" stroke:none;fill-rule:nonzero;fill:url(#linear2);" d="M 7.292969 4.09375 C 7.101562 4.09375 6.949219 4.257812 6.964844 4.449219 L 7.296875 8.75 C 7.308594 8.921875 7.453125 9.054688 7.625 9.054688 L 8.285156 9.054688 C 8.457031 9.054688 8.601562 8.921875 8.617188 8.75 L 8.945312 4.449219 C 8.960938 4.257812 8.808594 4.09375 8.617188 4.09375 Z M 7.957031 9.71875 C 7.589844 9.71875 7.292969 10.011719 7.292969 10.378906 C 7.292969 10.746094 7.589844 11.039062 7.957031 11.039062 C 8.320312 11.039062 8.617188 10.746094 8.617188 10.378906 C 8.617188 10.011719 8.320312 9.71875 7.957031 9.71875 Z M 7.957031 9.71875 "/>
<path style=" stroke:none;fill-rule:nonzero;fill:rgb(100%,100%,100%);fill-opacity:0.86129;" d="M 7.292969 4.09375 C 7.101562 4.09375 6.949219 4.257812 6.964844 4.449219 L 6.976562 4.585938 C 7.011719 4.445312 7.140625 4.34375 7.292969 4.34375 L 8.617188 4.34375 C 8.769531 4.34375 8.898438 4.445312 8.9375 4.585938 L 8.945312 4.449219 C 8.960938 4.257812 8.808594 4.09375 8.617188 4.09375 Z M 7.957031 9.71875 C 7.589844 9.71875 7.292969 10.011719 7.292969 10.378906 C 7.292969 10.421875 7.296875 10.460938 7.304688 10.503906 C 7.363281 10.195312 7.632812 9.964844 7.957031 9.964844 C 8.28125 9.964844 8.546875 10.195312 8.605469 10.503906 C 8.613281 10.460938 8.617188 10.421875 8.617188 10.378906 C 8.617188 10.011719 8.320312 9.71875 7.957031 9.71875 Z M 7.957031 9.71875 "/>
<path style=" stroke:none;fill-rule:nonzero;fill:rgb(0%,0%,0%);fill-opacity:0.235294;" d="M 6.980469 4.652344 C 6.96875 4.691406 6.960938 4.738281 6.964844 4.78125 L 7.296875 9.082031 C 7.308594 9.253906 7.453125 9.386719 7.625 9.386719 L 8.285156 9.386719 C 8.457031 9.386719 8.601562 9.253906 8.617188 9.082031 L 8.945312 4.78125 C 8.949219 4.738281 8.945312 4.691406 8.929688 4.652344 L 8.617188 8.75 C 8.601562 8.921875 8.457031 9.054688 8.285156 9.054688 L 7.625 9.054688 C 7.453125 9.054688 7.308594 8.921875 7.296875 8.75 Z M 7.316406 10.542969 C 7.300781 10.597656 7.292969 10.652344 7.292969 10.710938 C 7.292969 11.078125 7.589844 11.371094 7.957031 11.371094 C 8.320312 11.371094 8.617188 11.078125 8.617188 10.710938 C 8.617188 10.652344 8.609375 10.597656 8.597656 10.542969 C 8.523438 10.828125 8.265625 11.039062 7.957031 11.039062 C 7.644531 11.039062 7.386719 10.828125 7.316406 10.542969 Z M 7.316406 10.542969 "/>
<path style="fill:none;stroke-width:3;stroke-linecap:round;stroke-linejoin:round;stroke:rgb(12.941177%,12.941177%,12.941177%);stroke-opacity:1;stroke-miterlimit:4;" d="M 233.352716 -84.012509 C 227.228301 -84.012509 222.353766 -78.76301 222.853719 -72.638595 L 233.477704 64.973264 C 233.852668 70.472739 238.477227 74.722333 243.976701 74.722333 L 265.099684 74.722333 C 270.599159 74.722333 275.223717 70.472739 275.72367 64.973264 L 286.222667 -72.638595 C 286.722619 -78.76301 281.848085 -84.012509 275.72367 -84.012509 Z M 254.600687 95.970304 C 242.851809 95.970304 233.352716 105.344409 233.352716 117.093287 C 233.352716 128.842165 242.851809 138.21627 254.600687 138.21627 C 266.224577 138.21627 275.72367 128.842165 275.72367 117.093287 C 275.72367 105.344409 266.224577 95.970304 254.600687 95.970304 Z M 254.600687 95.970304 " transform="matrix(0.031253,0,0,0.031253,0,6.719392)"/>
</g>
</svg>
